**kern	**kern	**kern	**kern
*staff4	*staff3	*staff2	*staff1
*clefF4	*clefF4	*clefG2	*clefG2
*k[f#]	*k[f#]	*k[f#]	*k[f#]
*M2/4	*M2/4	*M2/4	*M2/4
*G:	*G:	*G:	*G:
=-	=-	=-	=-
4r	16BLL	4r	8r
.	16A	.	.
.	16G	.	(8g
.	16FJJ	.	.
=150	=150	=150	=150
2GGG] 2GG]	16ELL	2g	8ccL
.	16G	.	.
.	16c	.	8eeJ
.	16eJJ	.	.
.	16fLL	.	8ddL
.	16d	.	.
.	16B	.	8bJ)
.	16FJJ	.	.
=151	=151	=151	=151
[2GGG [2GG	16ELL	2g	4.gg
.	16C	.	.
.	16E	.	.
.	16GJJ	.	.
.	16cLL	.	.
.	16G	.	.
.	16c	.	(16.eeLL
.	16eJJ	.	.
.	.	.	32ccJJk)
=152	=152	=152	=152
*	*	*^	*
2GGG] 2GG]	16BLL	2d	(4.d	8ddL
.	16G	.	.	.
.	16D	.	.	(16.bL
.	16BBJJ	.	.	.
.	.	.	.	32gJJk)
.	16CLL	.	.	8aL
.	16D	.	.	.
.	16F#	.	8c)	(16.aL
.	16DJJ	.	.	.
.	.	.	.	32bJJk)
*	*	*v	*v	*
=153	=153	=153	=153
8GGG 8GG	8G)	8B 8d	8g
8r	8r	8r	8r
8DL	8F#L	8cL 8d	8aL
8DJ	8F#J	8cJ 8d	(16.aL
.	.	.	32bJJk)
=154	=154	=154	=154
8GG	8G	8B 8d	32g'LLL
.	.	.	32a'
.	.	.	32b'
.	.	.	32cc'JJ
8r	8r	8r	32dd'LL
.	.	.	32ee'
.	.	.	32ff#'
.	.	.	32gg'JJJ
*	*clefG2	*	*
8dL	8f#L	8ccL 8dd	8aaL
8dJ	8f#J	8ccJ 8dd	(16.aaL
.	.	.	32bbJJk)
=155	=155	=155	=155
8G	8g	8b 8dd	8gg'L
8r	8r	8r	8bb'J
8G	8g	8b 8dd	8ddd'L
8r	8r	8r	8bb'J
=156	=156	=156	=156
8G	8g	8b 8dd	8gg
8r	8r	8r	8r
4r	4r	4r	4r
==	==	==	==
*-	*-	*-	*-
